X: 759
T: Ferahnâkaşîrân Peşrev
C: Cüneyd Kosal
O: Turkey
F: http://compmusic.upf.edu/node/140
N: ferahnakasiran--pesrev--devrikebir----cuneyd_kosal
N: makam= ferahnakasiran
N: form= pesrev
N: usul= devrikebir = 28/4
M: 28/4
L: 1/16
K: C ^f ^c  
Q: 1/4=84
%%MIDI tuningsystem comma53
d4 f2e2 f4 g4  | a4 g2f2 g4 f2e2  | e4 d2e2 d4 e4  | \
w:  1. HANE  |   |   | 
f2a2 g2f2 f4 z4  | 
w:   | 
f2g2 f2g2 a4 g2f2  | =c'4 b2a2 a2g2 f2e2  | \
w:   |   | 
d4 c2B2 A4 d4  | d2c2 d2B2 A4 e4  | 
w:   |   | 
e2d2 =c2B2 A4 G2F2  | E2F2 E2D2 F4 G4  | \
w:   |   | 
G2A2 G2F2 F4 z4  | F2G2 A4 e4 d2=c2  | 
w:   |   | 
B2A2 G2A2 G2F2 F2E2  | F12 z4  | e2=f2 e2d2 e2d2 =c2d2  | \
w:   |   |  2. HANE  | 
e6d2 e4 f4  | 
w:   | 
g2_7/8a2 g2f2 e2d2 e2f2  | g6f2 g2f2 g4  | \
w:   |   | 
f6^e2 f2e2 f4  | g4 f2^e2 d4 c4  | 
w:   |   | 
d2c2 d2^e2 f4 z4  | a4 g2f2 e2f2 g4  | \
w:   |   | 
f2g2 e2f2 d4 d2e2  | e2d2 =c2B2 A4 G4  | 
w:   |   | 
G2A2 G2F2 F4 z4  | F2G2 A4 e4 d2=c2  | \
w:   |   | 
B2A2 G2A2 G2F2 F2E2  | F12 z4  | 
w:   |   | 
a4 a2g2 a4 b4  | a2g2 f2g2 a4 z4  | a2_7/8b2 c'2b2 a4 g4  | \
w:  3. HANE  |   |   | 
b4 a2g2 f4 z4  | 
w:   | 
f2g2 a4 a2g2 g2f2  | e2f2 g4 g2f2 f2e2  | \
w:   |   | 
e2d2 d2e2 f4 g4  | f2g2 f2e2 d4 c4  | 
w:   |   | 
c2d2 c2B2 A4 z4  | A2B2 =c2B2 A4 G2F2  | \
w:   |   | 
A2G2 F2E2 D4 z4  | F2G2 A4 e4 d2=c2  | 
w:   |   | 
B2A2 G2A2 G2F2 F2E2  | F12 z4  | E6A2 ^G4 A4  | \
w:   |   |  4. HANE  | 
B2d2 =c2B2 A2B2 A2^G2  | 
w:   | 
F2E2 F2A2 ^G4 A4  | ^G2F2 F2E2 E4 z4  | \
w:   |   | 
A6c2 B4 c4  | d4 e2d2 c4 B4  | 
w:   |   | 
d4 c2B2 A4 e4  | e2d2 d2=c2 c2B2 B2A2  | \
w:   |   | 
A2G2 G2F2 F2E2 D4  | E2F2 G4 A2B2 A2G2  | 
w:   |   | 
G2A2 G2F2 F4 z4  | F2G2 A4 e4 d2=c2  | \
w:   |   | 
B2A2 G2A2 G2F2 F2E2  | F12 z4  | 
w:   |   | 
|


